svgs/thin/i.svg

<svg xmlns="http://www.w3.org/2000/svg" viewBox="0 0 320 512"><!-- Font Awesome Pro 6.0.0-alpha2 by @fontawesome - https://fontawesome.com License - https://fontawesome.com/license (Commercial License) --><path d="M320 472C320 476.406 316.406 480 312 480H8C3.594 480 0 476.406 0 472S3.594 464 8 464H152V48H8C3.594 48 0 44.406 0 40S3.594 32 8 32H312C316.406 32 320 35.594 320 40S316.406 48 312 48H168V464H312C316.406 464 320 467.594 320 472Z"/></svg>

<svg xmlns="http://www.w3.org/2000/svg" viewBox="0 0 320 512"><!--! Font Awesome Pro 6.3.0 by @fontawesome - https://fontawesome.com License - https://fontawesome.com/license (Commercial License) Copyright 2023 Fonticons, Inc. --><path d="M320 472c0 4.406-3.594 8-8 8h-304C3.594 480 0 476.4 0 472s3.594-8 8-8h144v-416h-144C3.594 48 0 44.41 0 40S3.594 32 8 32h304C316.4 32 320 35.59 320 40S316.4 48 312 48h-144v416h144C316.4 464 320 467.6 320 472z"/></svg>
